packages/core/src/svgs/tokens/mono/ISP.svg

<svg width="24" height="24" viewBox="0 0 24 24" fill="none" xmlns="http://www.w3.org/2000/svg">
<path d="M16.5859 9.14406C16.9416 8.59467 17.1519 7.96383 17.1969 7.31083C17.1969 5.07205 14.997 3.40548 12.8416 3.38882C11.3139 3.37771 9.77513 4.03878 9.0029 5.41093L5.89196 10.8607C5.69196 11.1605 5.56453 11.5028 5.51976 11.8606C5.50309 12.5383 5.89196 13.1939 6.45304 13.666L10.6751 6.25533C11.2638 5.19984 12.8305 4.80541 13.8971 5.34426C15.047 5.8998 15.5081 7.26084 14.8749 8.333L10.3473 16.2492C9.98058 16.9325 10.5639 17.5658 11.2417 17.5547C11.5917 17.5547 11.9249 17.4047 12.0972 17.0936L16.5859 9.14406ZM7.36411 14.8549C7.02748 15.4088 6.83993 16.0403 6.81969 16.6881C6.81969 18.9268 8.98625 20.5878 11.1528 20.6101C12.6916 20.6267 14.1693 19.9602 14.9471 18.588L18.0913 13.0717C18.2802 12.7327 18.4968 12.3661 18.4968 11.9994C18.4968 11.3495 18.1302 10.7718 17.5691 10.3329L13.2694 17.777C12.8528 18.5268 12.0138 18.8768 11.1583 18.8768C9.93625 18.8714 8.75292 18.0936 8.76403 16.7436C8.76403 16.3992 8.88069 16.0215 9.06957 15.6992L13.686 7.77747C14.0304 7.14418 13.5083 6.46643 12.8416 6.44421C12.4749 6.43309 12.1194 6.61087 11.9361 6.93307L7.35855 14.8549H7.36411ZM18.1191 9.04407C18.8767 9.51624 19.4251 10.2601 19.6524 11.1234C19.8796 11.9868 19.7683 12.9043 19.3413 13.6883L16.197 19.2046C15.678 20.0732 14.9386 20.7893 14.0537 21.2799C13.1689 21.7706 12.17 22.0187 11.1583 21.9989C7.58076 21.9712 4.38094 18.3713 5.89196 14.7771C4.31983 13.7383 3.75875 11.8329 4.66981 10.2439L7.78075 4.7943C8.79736 3.01662 10.8139 2 12.8416 2C16.4192 2 19.5078 5.43871 18.1246 9.04407H18.1191Z" fill="white"/>
</svg>

<svg xmlns="http://www.w3.org/2000/svg" width="24" height="24" fill="none" viewBox="0 0 24 24">
    <path fill="#fff" d="M16.586 9.144c.356-.55.566-1.18.61-1.833 0-2.239-2.199-3.906-4.354-3.922-1.528-.011-3.067.65-3.84 2.022l-3.11 5.45c-.2.3-.327.642-.372 1-.017.677.372 1.333.933 1.805l4.222-7.41c.589-1.056 2.156-1.45 3.222-.912 1.15.556 1.611 1.917.978 2.989l-4.528 7.916c-.366.684.217 1.317.895 1.306.35 0 .683-.15.855-.461zm-9.222 5.71a3.76 3.76 0 0 0-.544 1.834c0 2.239 2.166 3.9 4.333 3.922 1.539.017 3.016-.65 3.794-2.022l3.144-5.516c.19-.34.406-.706.406-1.073 0-.65-.367-1.227-.928-1.666l-4.3 7.444c-.416.75-1.255 1.1-2.11 1.1-1.223-.006-2.406-.783-2.395-2.133 0-.345.117-.723.306-1.045l4.616-7.922c.344-.633-.178-1.31-.844-1.333a1 1 0 0 0-.906.49l-4.577 7.92zm10.755-5.81a3.5 3.5 0 0 1 1.222 4.644l-3.144 5.517a5.74 5.74 0 0 1-5.039 2.794c-3.577-.028-6.777-3.628-5.266-7.222-1.572-1.039-2.133-2.944-1.222-4.533l3.11-5.45C8.798 3.017 10.815 2 12.843 2c3.577 0 6.666 3.439 5.283 7.044z"/>
</svg>
